X: 5
T: Norman Toy  v.2
P: piffero secondo b0007
O: Cushing
%R: march
F: http://ancients.sudburymuster.org/mus/ssp/pdf/MacintosF.pdf
Z: 2019 John Chambers <jc:trillian.mit.edu>
M: 2/4
L: 1/16
K: D
z2 |\
d2A2 d2A2 | F2A2 A2d2 | G2B2 F2d2 | B2c2 G2E2 |\
d2A2 d2A2 | F2A2 A2d2 | e2g2 g2e2 | d2F2 F2 :|
|: z2 |\
D2F2 D2F2 | F2G2 G4 | A2A2 c2e2 | d2F2 F4 |\
A2F2 A2B2 | A2F2 F2D2 | G4 G4 | F4 F2 :|

%%center (drum bridge, Paddy O'Toole, 8 bars)


